X:1
T:Myn hert altyt heeft verlanghen
T:Pierre de la Rue (1452 - 1518)
T:Edición: Byrt Janssen (Granada, junio 2009)
T:Myn hert altyt heeft verlanghen
T:Edición: Byrt Janssen (Granada, junio 2009)
T:Edición: Byrt Janssen (Granada, junio 2009)
T:Edición: Byrt Janssen (Granada, junio 2009)
T:Edición: Byrt Janssen (Granada, junio 2009)
C:Pierre de la Rue
C:(1452 - 1518)
Z:Edición: Byrt Janssen (Granada, junio 2009)
%%score [ 1 2 3 4 ]
L:1/8
Q:1/2=100
M:4/2
K:Gmin
V:1 treble nm="SOPRANO" snm="S."
V:2 treble nm="ALTO" snm="A."
V:3 treble-8 transpose=-12 nm="TENOR" snm="T."
V:4 bass nm="BAJO" snm="B."
V:1
 z16 | z16 | z16 | z16 | z8 G8 | G4 G4 F4 F4 | G4 B8 A2 G2 | A8 D8 | z8 A8- | A8 B8 | A4 c8 B4 | %11
w: ||||Myn|hert al- tyt heeft|ver- lan- * *|* ghen|Naer|_ u|die al- der-|
 A4 F4 G8 | F8 F4 G4- | G2 F2 E2 D2 E8 | D8 z4 B4 | A4 G4 F4 E4 | D8 D4 E4- | E2 D2 G8 ^F4 | G16 | %19
w: lief- * *|* ste myn,|_ _ _ _ _|* Naer|u die al- der-|lief- ste myn.|_ _ _ _||
 z16 | z16 | z16 | A8 A4 A4 | A4 B8 B4 | A4 F4 G8 | F16 | z4 A4 A4 A4 | B4 A8 G2 F2 | G4 F4 c8 | %29
w: |||U lief- de|heeft my ont-|fan- * *|ghen,|U ei- ghen|vry _ _ _|_ _ wil|
 c12 B4- | B4 A8 G4 | A16 | z16 | z8 A8 | B4 B8 B4 | G4 F4 E8 | D16 | z16 | z8 G8 | G4 G4 F8 | %40
w: ick _|_ _ _|zyn.||Voor|al de wee-|relt- ghe- mee-|ne,||Soe|wie dat hoort|
 F8 G4 B4- | B4 A2 G2 A8 | D8 z8 | A8 B8 | A4 c8 B4 | A4 G2 F2 G8 | F8 F4 G4- | G2 F2 E2 D2 E8 | %48
w: oft ziet, _|_ _ _ _||Heb- dy|myn her- *||te al- lee-||
 D8 z4 B4 | A4 G4 F4 E4 | D8 D4 E4- | E2 D2 G8 ^F4 | G16- | G16 |] %54
w: ne. Daer-|om lief en be-|gheeft _ _|_ _ _ my|niet.|_|
V:2
 C8 C4 C4 | G,4 B,4 C4 E4- | E4 D2 C2 D8 | G,8 z8 | D8 E4 D4- | D4 C2 B,2 C4 D4 | G,8 D8 | %7
w: Myn hert al-|tyt heeft ver- lan-||ghen|heeft ver- lan-||* ghen,|
 z8 z4 D4- | D4 D4 C6 D2 | E4 F8 E4 | F6 E2 C2 D2 E4- | E4 D8 C4 | D12 C4- | C4 B,8 A,4 | %14
w: Naer|_ u die _|al- * der-|lief- * * * *|* * ste|myn, _|_ _ _|
 B,4 D4 C4 B,4 | C4 G,4 B,4 C4 | F,8 G,8 | z4 D8 D4- | D2 C2 B,8 A,2 G,2 | F,16 | z16 | z4 D8 C4 | %22
w: * Naer u die|al- * * der-|lief- ste,|die al|_ der- lief- ste _|myn.||U lief-|
 D4 A,4 F8 | F2 E2 D2 C2 B,4 E4- | E4 D8 C4 | D16- | D16 | z16 | z8 C8 | F12 E2 D2 | D8- D8 | %31
w: de heeft my|ont- * * * * fan-||ghen.|_||U|ei- ghen _|vry _|
 z4 D4 C4 D4 | A,4 D4 C2 B,2 A,2 G,2 | F,4 G,8 F,4 | G,8 G6 F2 | E2 D2 D8 C4 | D8 z8 | z16 | D16- | %39
w: Voor al de|wee- * * * * *||relt- ghe- *|* * mee- *|ne.||Soe|
 D8 C6 B,2 | D8 C4 B,4 | D16 | D8 C6 D2 | E4 F8 E4 | F6 E2 C2 D2 E4- | E4 D8 C4 | D12 C4- | %47
w: _ wie dat|hoort _ oft|ziet,|Heb- dy _|myn _ _|hert al- lee- * *||ne. _|
 C4 B,8 A,4 | B,4 D4 C4 B,4 | C4 G,4 B,4 C4 | F,8 G,8- | G,4 D6 C2 B,2 A,2 | B,12 A,2 G,2 | D16 |] %54
w: _ _ _|* Daer- om lief|en be- gheeft my|niet, be-|* gheeft _ _ _|my _ _|niet.|
V:3
 z16 | z16 | z16 | G8 G4 G4 | D4 F4 G4 B4- | B4 A2 G2 A4 F4 | z16 | A8 B8 | B8 A4 c4- | %9
w: |||Myn hert al-|tyt heeft ver- lan-|* * * * ghen||Naer u|die al- der-|
 c4 B2 A2 G8 | F8 z8 | z8 G8 | A12 G4 | G4 F8 E4 | F4 B4 A4 G4 | F4 B8 A4 | B12 c4- | c4 B4 A8 | %18
w: * lief- * ste|myn,|Naer|u die|al- der- lief-|ste, Naer u die|al- * der-|lief- *|* * ste|
 G16 | A8 A4 (A4 | A4) B12 | A4 F4 G8 | F16 | z16 | z16 | A8 A4 A4 | B4 A8 G2 F2 | G4 F4 c8 | %28
w: myn.|U lief- de|_ heeft|my ont- fan-|ghen,|||U ei- ghen|vry _ _ _|_ _ wil|
 B8 A4 c4- | c2 B2 A8 G4 | A8 B8 | A16- | A16 | z16 | z16 | z8 A8 | B4 B8 B4 | G8 G4 G4 | %38
w: _ _ _||ick _|zyn.|_|||Voor|al de wee-|relt- ghe- mee-|
 D4 F4 G4 B4- | B4 A2 G2 A8 | D8 z8 | z8 A8 | B8 A4 c4- | c4 B2 A2 G8 | F8 z8 | z8 G8 | A8 A4 G4- | %47
w: ||ne,|Heb-|dy myn hert|_ al- * lee-|ne,|myn|hert al- *|
 G4 F8 E4 | F4 B4 A4 G4 | F4 B8 A4 | B4 d8 c4- | c4 B4 A8 | G16- | G16 |] %54
w: * lee- *|ne. Daer- om lief|en be- *|* gheeft _|_ _ my|niet.|_|
V:4
 z16 | z8 C,8 | C,4 C,4 G,,4 B,,4 | C,4 E,8 D,2 C,2 | D,8 G,,8 | z8 z4 D,4 | E,4 G,8 F,2 E,2 | %7
w: |Myn|hert al- tyt heeft|ver- lan- * *|* ghen,|heeft|al- tyt ver- *|
 F,8 G,8 | G,,8 z8 | z16 | z16 | D,8 E,8 | D,4 F,8 E,4 | D,4 B,,4 C,8 | B,,8 z8 | z4 E,4 D,4 C,4 | %16
w: lan- *|ghen|||Naer u|die al- der|lief- * ste|myn,|Naer u die|
 B,,4 A,,4 G,,4 C,4- | C,2 B,,2 G,,4 D,8 | G,,8 z8 | D,8 D,4 D,4 | C,4 B,,6 C,2 D,2 E,2 | %21
w: al- der- lief- *|* * * ste|myn.|U lief- de|heeft my _ _ _|
 F,4 D,4 E,8 | D,8 D,6 E,2 | F,4 G,8 G,4 | F,4 D,4 E,8 | D,16- | D,16 | z16 | z4 F,4 F,4 F,4- | %29
w: _ ont- fan-|ghen, heeft _|_ my ont-|fan- * *|ghen.|_||U ei- ghen|
 F,4 F,4 F,4 G,4- | G,4 F,4 G,8 | D,8 z4 D,4 | C,4 D,4 A,,4 D,4- | D,4 C,2 B,,2 A,,8 | G,,16 | %35
w: _ vry wil ick|_ _ _|zyn. Voor|al de wee- relt-|* ghe- * mee-|ne,|
 z16 | G,,8 B,,4 B,,4 | C,4 E,8 D,2 C,2 | D,8 G,,8 | z16 | D,8 E,4 G,4- | G,4 F,2 E,2 F,6 F,2 | %42
w: |Voor al de|wee- relt- ghe- *|mee- ne.||Soe wie dat|_ _ _ hoort oft|
 G,8 z8 | z16 | z4 A,8 G,4 | F,4 D,4 E,8 | D,4 F,8 E,4 | D,4 B,,4 C,8 | B,,8 z8 | z4 E,4 D,4 C,4 | %50
w: ziet,||Heb- dy|_ myn hert|al- lee- *||ne.|Daer om lief|
 B,,6 A,,2 G,,4 C,4- | C,2 B,,2 G,,4 D,8 | G,,16- | G,,16 |] %54
w: en be- gheeft _|_ _ _ my|niet.|_|

